svg/church-center/give-money.svg

<svg width="16" height="16" viewBox="0 0 16 16" fill="none" xmlns="http://www.w3.org/2000/svg">
<path d="M8 0C6.41775 0 4.87103 0.469192 3.55544 1.34824C2.23985 2.22729 1.21447 3.47672 0.608967 4.93853C0.00346625 6.40034 -0.15496 8.00887 0.153721 9.56072C0.462403 11.1126 1.22433 12.538 2.34315 13.6569C3.46197 14.7757 4.88743 15.5376 6.43928 15.8463C7.99113 16.155 9.59966 15.9965 11.0615 15.391C12.5233 14.7855 13.7727 13.7602 14.6518 12.4446C15.5308 11.129 16 9.58225 16 8C16 5.87827 15.1571 3.84344 13.6569 2.34315C12.1566 0.842855 10.1217 0 8 0V0ZM8 14.118C6.78998 14.118 5.60713 13.7592 4.60103 13.0869C3.59493 12.4147 2.81077 11.4592 2.34771 10.3413C1.88465 9.22334 1.76349 7.99321 1.99956 6.80644C2.23562 5.61966 2.81831 4.52954 3.67392 3.67392C4.52954 2.8183 5.61967 2.23562 6.80644 1.99956C7.99322 1.76349 9.22334 1.88465 10.3413 2.34771C11.4592 2.81076 12.4147 3.59492 13.0869 4.60102C13.7592 5.60712 14.118 6.78997 14.118 8C14.118 9.62259 13.4734 11.1787 12.3261 12.3261C11.1787 13.4734 9.6226 14.118 8 14.118V14.118ZM10.15 8.379C10.3063 8.59452 10.3865 8.8559 10.378 9.122C10.3796 9.32229 10.341 9.52087 10.2646 9.70602C10.1881 9.89116 10.0754 10.0591 9.933 10.2C9.56813 10.5308 9.10697 10.7361 8.617 10.786V11.8H7.6V10.813C7.2421 10.7762 6.89031 10.6942 6.553 10.569C6.21584 10.4445 5.90109 10.2662 5.621 10.041L6.284 9.064C6.58313 9.23746 6.89503 9.3879 7.217 9.514C7.52022 9.61907 7.8391 9.67182 8.16 9.67C8.35695 9.68129 8.55343 9.64096 8.73 9.553C8.79007 9.52307 8.8406 9.47699 8.87593 9.41994C8.91126 9.36288 8.92998 9.29711 8.93 9.23C8.92649 9.15731 8.90322 9.08696 8.86269 9.02652C8.82216 8.96608 8.76591 8.91784 8.7 8.887C8.52263 8.78077 8.33502 8.69266 8.14 8.624C7.91867 8.54133 7.67667 8.45333 7.414 8.36C7.15784 8.27172 6.91152 8.15711 6.679 8.018C6.46223 7.88515 6.27228 7.71284 6.119 7.51C5.96764 7.28875 5.89091 7.02492 5.9 6.757C5.89517 6.55824 5.93353 6.3608 6.01243 6.17831C6.09133 5.99582 6.20889 5.83263 6.357 5.7C6.70775 5.40014 7.14112 5.21362 7.6 5.165V4.324H8.617V5.155C8.94268 5.19002 9.25885 5.28602 9.549 5.438C9.81584 5.5729 10.0606 5.74756 10.275 5.956L9.518 6.777C9.30259 6.628 9.06946 6.5064 8.824 6.415C8.58547 6.32637 8.33243 6.2833 8.078 6.288C7.60134 6.288 7.363 6.438 7.363 6.738C7.36762 6.8024 7.39048 6.86416 7.42891 6.91605C7.46734 6.96793 7.51974 7.00781 7.58 7.031C7.76131 7.12126 7.94838 7.19943 8.14 7.265C8.368 7.344 8.61 7.428 8.865 7.519C9.12015 7.60702 9.36387 7.72519 9.591 7.871C9.81031 8.00006 10.0006 8.173 10.15 8.379V8.379Z" fill="black"/>
</svg>

<svg id="Layer_1" data-name="Layer 1" xmlns="http://www.w3.org/2000/svg" viewBox="0 0 16 16"><title>give-money</title><path d="M8,0a8,8,0,1,0,8,8A8,8,0,0,0,8,0ZM8,14.118A6.118,6.118,0,1,1,14.118,8,6.118,6.118,0,0,1,8,14.118Zm2.15-5.739a1.2,1.2,0,0,1,.228.743A1.5,1.5,0,0,1,9.933,10.2a2.307,2.307,0,0,1-1.316.586V11.8H7.6v-.987a4.262,4.262,0,0,1-1.047-.244,3.325,3.325,0,0,1-.932-.528l.663-.977a6.812,6.812,0,0,0,.933.45,2.831,2.831,0,0,0,.943.156,1.133,1.133,0,0,0,.57-.117.361.361,0,0,0,.2-.323A.4.4,0,0,0,8.7,8.887a3.082,3.082,0,0,0-.56-.263Q7.808,8.5,7.414,8.36a3.918,3.918,0,0,1-.735-.342,2.034,2.034,0,0,1-.56-.508A1.258,1.258,0,0,1,5.9,6.757,1.374,1.374,0,0,1,6.357,5.7,2.283,2.283,0,0,1,7.6,5.165V4.324H8.617v.831a2.61,2.61,0,0,1,.932.283,2.952,2.952,0,0,1,.726.518l-.757.821h0a3.156,3.156,0,0,0-.694-.362,2.034,2.034,0,0,0-.746-.127q-.715,0-.715.45a.34.34,0,0,0,.217.293,4.592,4.592,0,0,0,.56.234c.228.079.47.163.725.254a3.391,3.391,0,0,1,.726.352A1.849,1.849,0,0,1,10.15,8.379Z"/></svg>
